icons/modern/baby-bottle.svg

<svg width="32" height="32" viewBox="0 0 32 32" fill="none" xmlns="http://www.w3.org/2000/svg">
<path d="M11.58 4.05L4.05001 11.58C3.67001 11.96 3.67001 12.59 4.05001 12.97L5.67001 14.59L14.58 5.68L12.96 4.06C12.58 3.67 11.96 3.67 11.58 4.05Z" fill="url(#paint0_linear_18_33297)"/>
<path d="M11.58 4.05L4.05001 11.58C3.67001 11.96 3.67001 12.59 4.05001 12.97L5.67001 14.59L14.58 5.68L12.96 4.06C12.58 3.67 11.96 3.67 11.58 4.05Z" fill="url(#paint1_linear_18_33297)"/>
<path d="M11.58 4.05L4.05001 11.58C3.67001 11.96 3.67001 12.59 4.05001 12.97L5.67001 14.59L14.58 5.68L12.96 4.06C12.58 3.67 11.96 3.67 11.58 4.05Z" fill="url(#paint2_linear_18_33297)"/>
<path d="M6.27 3.3L5.59 2.62C4.77 1.8 3.44 1.8 2.62 2.62C1.8 3.44 1.8 4.77 2.62 5.59L3.3 6.27C3.56 6.53 3.66 6.92 3.54 7.28L3 8.89C2.76 9.6 2.95 10.38 3.48 10.9L4.1 11.53L11.53 4.1L10.9 3.48C10.38 2.95 9.6 2.76 8.89 3L7.28 3.54C6.92 3.66 6.53 3.56 6.27 3.3Z" fill="url(#paint3_linear_18_33297)"/>
<path d="M6.27 3.3L5.59 2.62C4.77 1.8 3.44 1.8 2.62 2.62C1.8 3.44 1.8 4.77 2.62 5.59L3.3 6.27C3.56 6.53 3.66 6.92 3.54 7.28L3 8.89C2.76 9.6 2.95 10.38 3.48 10.9L4.1 11.53L11.53 4.1L10.9 3.48C10.38 2.95 9.6 2.76 8.89 3L7.28 3.54C6.92 3.66 6.53 3.56 6.27 3.3Z" fill="url(#paint4_radial_18_33297)"/>
<path d="M6.27 3.3L5.59 2.62C4.77 1.8 3.44 1.8 2.62 2.62C1.8 3.44 1.8 4.77 2.62 5.59L3.3 6.27C3.56 6.53 3.66 6.92 3.54 7.28L3 8.89C2.76 9.6 2.95 10.38 3.48 10.9L4.1 11.53L11.53 4.1L10.9 3.48C10.38 2.95 9.6 2.76 8.89 3L7.28 3.54C6.92 3.66 6.53 3.56 6.27 3.3Z" fill="url(#paint5_linear_18_33297)"/>
<path d="M6.27 3.3L5.59 2.62C4.77 1.8 3.44 1.8 2.62 2.62C1.8 3.44 1.8 4.77 2.62 5.59L3.3 6.27C3.56 6.53 3.66 6.92 3.54 7.28L3 8.89C2.76 9.6 2.95 10.38 3.48 10.9L4.1 11.53L11.53 4.1L10.9 3.48C10.38 2.95 9.6 2.76 8.89 3L7.28 3.54C6.92 3.66 6.53 3.56 6.27 3.3Z" fill="url(#paint6_radial_18_33297)"/>
<path d="M18.8437 5.53127C16.8281 3.51564 15.0937 3.54691 13.1094 5.53126L5.4925 13.1175C3.89238 14.7176 3.10156 16.5234 5.64062 19.0625L14.8125 28.2812C17.6562 31.125 19.4766 29.9766 21.1719 28.2812L28.5469 20.9375C30.3047 19.1797 30.7656 17.5156 28.1562 14.9063C25.0529 11.8029 21.947 8.63467 18.8437 5.53127Z" fill="url(#paint7_linear_18_33297)"/>
<path d="M18.8437 5.53127C16.8281 3.51564 15.0937 3.54691 13.1094 5.53126L5.4925 13.1175C3.89238 14.7176 3.10156 16.5234 5.64062 19.0625L14.8125 28.2812C17.6562 31.125 19.4766 29.9766 21.1719 28.2812L28.5469 20.9375C30.3047 19.1797 30.7656 17.5156 28.1562 14.9063C25.0529 11.8029 21.947 8.63467 18.8437 5.53127Z" fill="url(#paint8_linear_18_33297)"/>
<path d="M20.12 27.57C18.86 28.83 16.81 28.83 15.56 27.57L6.28002 18.29C6.27002 18.28 6.26002 18.27 6.25002 18.25C5.23002 17.2 5.25002 15.5 6.28002 14.46L14.45 6.29001C15.49 5.25001 17.18 5.24001 18.24 6.26001C18.31 6.33001 18.38 6.39001 18.46 6.44001L27.37 15.35C27.42 15.43 27.49 15.51 27.56 15.58C28.82 16.84 28.82 18.89 27.56 20.14L20.12 27.57Z" fill="url(#paint9_linear_18_33297)"/>
<path d="M20.12 27.57C18.86 28.83 16.81 28.83 15.56 27.57L6.28002 18.29C6.27002 18.28 6.26002 18.27 6.25002 18.25C5.23002 17.2 5.25002 15.5 6.28002 14.46L14.45 6.29001C15.49 5.25001 17.18 5.24001 18.24 6.26001C18.31 6.33001 18.38 6.39001 18.46 6.44001L27.37 15.35C27.42 15.43 27.49 15.51 27.56 15.58C28.82 16.84 28.82 18.89 27.56 20.14L20.12 27.57Z" fill="url(#paint10_linear_18_33297)"/>
<path d="M9.30002 21.32L15.55 27.57C17.2713 29.2912 18.85 28.83 20.11 27.57L27.54 20.14C29.1681 18.5119 28.8 16.7812 27.54 15.5312C26.2063 14.1975 24.8861 12.8861 23.55 11.55C23.35 11.35 23.03 11.31 22.79 11.46L9.54002 19.36C8.85002 19.78 8.73002 20.74 9.30002 21.32Z" fill="url(#paint11_linear_18_33297)"/>
<path d="M11.5988 14.345L9.82877 16.115C9.53877 16.405 9.53877 16.885 9.82877 17.175C10.1188 17.465 10.5988 17.465 10.8888 17.175L12.6588 15.405C12.9488 15.115 12.9488 14.635 12.6588 14.345C12.3688 14.045 11.8988 14.045 11.5988 14.345Z" fill="url(#paint12_linear_18_33297)"/>
<path d="M11.5988 14.345L9.82877 16.115C9.53877 16.405 9.53877 16.885 9.82877 17.175C10.1188 17.465 10.5988 17.465 10.8888 17.175L12.6588 15.405C12.9488 15.115 12.9488 14.635 12.6588 14.345C12.3688 14.045 11.8988 14.045 11.5988 14.345Z" fill="url(#paint13_radial_18_33297)"/>
<path d="M14.935 17.6175L13.165 19.3875C12.875 19.6775 12.875 20.1575 13.165 20.4475C13.455 20.7375 13.935 20.7375 14.225 20.4475L15.995 18.6775C16.285 18.3875 16.285 17.9075 15.995 17.6175C15.705 17.3175 15.235 17.3175 14.935 17.6175Z" fill="url(#paint14_linear_18_33297)"/>
<path d="M14.935 17.6175L13.165 19.3875C12.875 19.6775 12.875 20.1575 13.165 20.4475C13.455 20.7375 13.935 20.7375 14.225 20.4475L15.995 18.6775C16.285 18.3875 16.285 17.9075 15.995 17.6175C15.705 17.3175 15.235 17.3175 14.935 17.6175Z" fill="url(#paint15_radial_18_33297)"/>
<path d="M18.2 20.9925L16.43 22.7625C16.14 23.0525 16.14 23.5325 16.43 23.8225C16.72 24.1125 17.2 24.1125 17.49 23.8225L19.26 22.0525C19.55 21.7625 19.55 21.2825 19.26 20.9925C18.97 20.7025 18.5 20.7025 18.2 20.9925Z" fill="url(#paint16_linear_18_33297)"/>
<path d="M18.2 20.9925L16.43 22.7625C16.14 23.0525 16.14 23.5325 16.43 23.8225C16.72 24.1125 17.2 24.1125 17.49 23.8225L19.26 22.0525C19.55 21.7625 19.55 21.2825 19.26 20.9925C18.97 20.7025 18.5 20.7025 18.2 20.9925Z" fill="url(#paint17_radial_18_33297)"/>
<defs>
<linearGradient id="paint0_linear_18_33297" x1="13.125" y1="4.375" x2="4.5" y2="12.9375" gradientUnits="userSpaceOnUse">
<stop stop-color="#F9B590"/>
<stop offset="0.283553" stop-color="#EEAF91"/>
<stop offset="0.592548" stop-color="#DB9A85"/>
<stop offset="1" stop-color="#C37F75"/>
</linearGradient>
<linearGradient id="paint1_linear_18_33297" x1="7.375" y1="7.9375" x2="8" y2="8.53125" gradientUnits="userSpaceOnUse">
<stop offset="0.240473" stop-color="#D4875F"/>
<stop offset="1" stop-color="#CF845D" stop-opacity="0"/>
</linearGradient>
<linearGradient id="paint2_linear_18_33297" x1="8.61751" y1="9.03874" x2="9.17251" y2="9.59375" gradientUnits="userSpaceOnUse">
<stop stop-color="#D88F74" stop-opacity="0"/>
<stop offset="1" stop-color="#D18363"/>
</linearGradient>
<linearGradient id="paint3_linear_18_33297" x1="2.23437" y1="1.79688" x2="8.1875" y2="7.75" gradientUnits="userSpaceOnUse">
<stop stop-color="#D2A852"/>
<stop offset="0.468159" stop-color="#EFCA3C"/>
<stop offset="0.596986" stop-color="#D4B039"/>
<stop offset="0.801321" stop-color="#EECA3F"/>
<stop offset="1" stop-color="#CB9F44"/>
</linearGradient>
<radialGradient id="paint4_radial_18_33297" cx="0" cy="0" r="1" gradientUnits="userSpaceOnUse" gradientTransform="translate(9.59375 4.25) rotate(45) scale(2.56326 7.6235)">
<stop stop-color="#F9D667"/>
<stop offset="0.420455" stop-color="#ECC73F"/>
<stop offset="1" stop-color="#DEB636" stop-opacity="0"/>
</radialGradient>
<linearGradient id="paint5_linear_18_33297" x1="7.4375" y1="7.1875" x2="3.5625" y2="11.0625" gradientUnits="userSpaceOnUse">
<stop stop-color="#CDA13D" stop-opacity="0"/>
<stop offset="1" stop-color="#C09764"/>
</linearGradient>
<radialGradient id="paint6_radial_18_33297" cx="0" cy="0" r="1" gradientUnits="userSpaceOnUse" gradientTransform="translate(5.1875 2.9375) rotate(45) scale(2.40858)">
<stop stop-color="#FFDE6B"/>
<stop offset="0.50435" stop-color="#F6D146"/>
<stop offset="1" stop-color="#E9BF40" stop-opacity="0"/>
</radialGradient>
<linearGradient id="paint7_linear_18_33297" x1="29.4375" y1="17.0205" x2="4.00516" y2="17.0205" gradientUnits="userSpaceOnUse">
<stop stop-color="#FFD2B5"/>
<stop offset="0.570424" stop-color="#FFBE9C"/>
<stop offset="0.840465" stop-color="#E49E8B"/>
<stop offset="1" stop-color="#D1817B"/>
</linearGradient>
<linearGradient id="paint8_linear_18_33297" x1="16.9973" y1="13.0625" x2="13.5" y2="29.1875" gradientUnits="userSpaceOnUse">
<stop offset="0.206821" stop-color="#DA95A5" stop-opacity="0"/>
<stop offset="0.743011" stop-color="#DC96A6"/>
</linearGradient>
<linearGradient id="paint9_linear_18_33297" x1="19.5" y1="7.5" x2="7.875" y2="19.25" gradientUnits="userSpaceOnUse">
<stop offset="0.0379182" stop-color="#DFC2B6"/>
<stop offset="0.198627" stop-color="#E7CDC5"/>
<stop offset="0.375007" stop-color="#E7CDC5"/>
<stop offset="0.687303" stop-color="#D4B3B7"/>
<stop offset="1" stop-color="#D7B5B6"/>
</linearGradient>
<linearGradient id="paint10_linear_18_33297" x1="15.1875" y1="16.375" x2="14.0625" y2="14.1875" gradientUnits="userSpaceOnUse">
<stop offset="0.194616" stop-color="#D6B5B2"/>
<stop offset="1" stop-color="#DFC3B8" stop-opacity="0"/>
</linearGradient>
<linearGradient id="paint11_linear_18_33297" x1="13.625" y1="25.4375" x2="25.5" y2="13.25" gradientUnits="userSpaceOnUse">
<stop stop-color="#D2C4E3"/>
<stop offset="0.688971" stop-color="#E7E4ED"/>
<stop offset="1" stop-color="#E8E7EB"/>
</linearGradient>
<linearGradient id="paint12_linear_18_33297" x1="10.375" y1="15.3125" x2="11.6875" y2="16.5625" gradientUnits="userSpaceOnUse">
<stop offset="0.0775862" stop-color="#CA7F67"/>
<stop offset="0.314507" stop-color="#D68D77"/>
<stop offset="0.649725" stop-color="#E09290"/>
<stop offset="1" stop-color="#D58577"/>
</linearGradient>
<radialGradient id="paint13_radial_18_33297" cx="0" cy="0" r="1" gradientUnits="userSpaceOnUse" gradientTransform="translate(12.3437 14.5937) rotate(135) scale(1.14905 1.92587)">
<stop stop-color="#F6B599"/>
<stop offset="1" stop-color="#DF9788" stop-opacity="0"/>
</radialGradient>
<linearGradient id="paint14_linear_18_33297" x1="13.7112" y1="18.585" x2="15.0237" y2="19.835" gradientUnits="userSpaceOnUse">
<stop offset="0.0775862" stop-color="#CF8572"/>
<stop offset="0.314507" stop-color="#D88F7C"/>
<stop offset="0.649725" stop-color="#E59996"/>
<stop offset="1" stop-color="#E3918E"/>
</linearGradient>
<radialGradient id="paint15_radial_18_33297" cx="0" cy="0" r="1" gradientUnits="userSpaceOnUse" gradientTransform="translate(15.68 17.8662) rotate(135) scale(1.14905 1.92587)">
<stop stop-color="#F6B599"/>
<stop offset="1" stop-color="#DF9788" stop-opacity="0"/>
</radialGradient>
<linearGradient id="paint16_linear_18_33297" x1="16.9762" y1="21.9648" x2="18.2859" y2="23.2149" gradientUnits="userSpaceOnUse">
<stop offset="0.0775862" stop-color="#D28977"/>
<stop offset="0.314507" stop-color="#DC9384"/>
<stop offset="0.649725" stop-color="#E79C9B"/>
<stop offset="1" stop-color="#E49496"/>
</linearGradient>
<radialGradient id="paint17_radial_18_33297" cx="0" cy="0" r="1" gradientUnits="userSpaceOnUse" gradientTransform="translate(18.945 21.2477) rotate(135.066) scale(1.14773 1.92366)">
<stop stop-color="#F6B599"/>
<stop offset="1" stop-color="#DF9788" stop-opacity="0"/>
</radialGradient>
</defs>
</svg>

<svg width="32" height="32" fill="none" xmlns="http://www.w3.org/2000/svg"><path d="m11.58 4.05-7.53 7.53a.99.99 0 0 0 0 1.39l1.62 1.62 8.91-8.91-1.62-1.62c-.38-.39-1-.39-1.38-.01Z" fill="url(#a)"/><path d="m11.58 4.05-7.53 7.53a.99.99 0 0 0 0 1.39l1.62 1.62 8.91-8.91-1.62-1.62c-.38-.39-1-.39-1.38-.01Z" fill="url(#b)"/><path d="m11.58 4.05-7.53 7.53a.99.99 0 0 0 0 1.39l1.62 1.62 8.91-8.91-1.62-1.62c-.38-.39-1-.39-1.38-.01Z" fill="url(#c)"/><path d="m6.27 3.3-.68-.68a2.1 2.1 0 0 0-2.97 2.97l.68.68c.26.26.36.65.24 1.01L3 8.89c-.24.71-.05 1.49.48 2.01l.62.63 7.43-7.43-.63-.62c-.52-.53-1.3-.72-2.01-.48l-1.61.54c-.36.12-.75.02-1.01-.24Z" fill="url(#d)"/><path d="m6.27 3.3-.68-.68a2.1 2.1 0 0 0-2.97 2.97l.68.68c.26.26.36.65.24 1.01L3 8.89c-.24.71-.05 1.49.48 2.01l.62.63 7.43-7.43-.63-.62c-.52-.53-1.3-.72-2.01-.48l-1.61.54c-.36.12-.75.02-1.01-.24Z" fill="url(#e)"/><path d="m6.27 3.3-.68-.68a2.1 2.1 0 0 0-2.97 2.97l.68.68c.26.26.36.65.24 1.01L3 8.89c-.24.71-.05 1.49.48 2.01l.62.63 7.43-7.43-.63-.62c-.52-.53-1.3-.72-2.01-.48l-1.61.54c-.36.12-.75.02-1.01-.24Z" fill="url(#f)"/><path d="m6.27 3.3-.68-.68a2.1 2.1 0 0 0-2.97 2.97l.68.68c.26.26.36.65.24 1.01L3 8.89c-.24.71-.05 1.49.48 2.01l.62.63 7.43-7.43-.63-.62c-.52-.53-1.3-.72-2.01-.48l-1.61.54c-.36.12-.75.02-1.01-.24Z" fill="url(#g)"/><path d="M18.844 5.531c-2.016-2.015-3.75-1.984-5.735 0l-7.617 7.587c-1.6 1.6-2.39 3.405.149 5.944l9.171 9.22c2.844 2.843 4.665 1.695 6.36 0l7.375-7.345c1.758-1.757 2.219-3.421-.39-6.03-3.104-3.104-6.21-6.272-9.313-9.376Z" fill="url(#h)"/><path d="M18.844 5.531c-2.016-2.015-3.75-1.984-5.735 0l-7.617 7.587c-1.6 1.6-2.39 3.405.149 5.944l9.171 9.22c2.844 2.843 4.665 1.695 6.36 0l7.375-7.345c1.758-1.757 2.219-3.421-.39-6.03-3.104-3.104-6.21-6.272-9.313-9.376Z" fill="url(#i)"/><path d="M20.12 27.57a3.223 3.223 0 0 1-4.56 0l-9.28-9.28a.138.138 0 0 1-.03-.04c-1.02-1.05-1-2.75.03-3.79l8.17-8.17a2.71 2.71 0 0 1 3.79-.03c.07.07.14.13.22.18l8.91 8.91c.05.08.12.16.19.23a3.223 3.223 0 0 1 0 4.56l-7.44 7.43Z" fill="url(#j)"/><path d="M20.12 27.57a3.223 3.223 0 0 1-4.56 0l-9.28-9.28a.138.138 0 0 1-.03-.04c-1.02-1.05-1-2.75.03-3.79l8.17-8.17a2.71 2.71 0 0 1 3.79-.03c.07.07.14.13.22.18l8.91 8.91c.05.08.12.16.19.23a3.223 3.223 0 0 1 0 4.56l-7.44 7.43Z" fill="url(#k)"/><path d="m9.3 21.32 6.25 6.25c1.721 1.721 3.3 1.26 4.56 0l7.43-7.43c1.628-1.628 1.26-3.359 0-4.609-1.334-1.334-2.654-2.645-3.99-3.981a.62.62 0 0 0-.76-.09l-13.25 7.9c-.69.42-.81 1.38-.24 1.96Z" fill="url(#l)"/><path d="m11.599 14.345-1.77 1.77c-.29.29-.29.77 0 1.06.29.29.77.29 1.06 0l1.77-1.77c.29-.29.29-.77 0-1.06-.29-.3-.76-.3-1.06 0Z" fill="url(#m)"/><path d="m11.599 14.345-1.77 1.77c-.29.29-.29.77 0 1.06.29.29.77.29 1.06 0l1.77-1.77c.29-.29.29-.77 0-1.06-.29-.3-.76-.3-1.06 0Z" fill="url(#n)"/><path d="m14.935 17.617-1.77 1.77c-.29.29-.29.77 0 1.06.29.29.77.29 1.06 0l1.77-1.77c.29-.29.29-.77 0-1.06-.29-.3-.76-.3-1.06 0Z" fill="url(#o)"/><path d="m14.935 17.617-1.77 1.77c-.29.29-.29.77 0 1.06.29.29.77.29 1.06 0l1.77-1.77c.29-.29.29-.77 0-1.06-.29-.3-.76-.3-1.06 0Z" fill="url(#p)"/><path d="m18.2 20.992-1.77 1.77c-.29.29-.29.77 0 1.06.29.29.77.29 1.06 0l1.77-1.77c.29-.29.29-.77 0-1.06a.754.754 0 0 0-1.06 0Z" fill="url(#q)"/><path d="m18.2 20.992-1.77 1.77c-.29.29-.29.77 0 1.06.29.29.77.29 1.06 0l1.77-1.77c.29-.29.29-.77 0-1.06a.754.754 0 0 0-1.06 0Z" fill="url(#r)"/><defs><linearGradient id="a" x1="13.125" y1="4.375" x2="4.5" y2="12.938" gradientUnits="userSpaceOnUse"><stop stop-color="#F9B590"/><stop offset=".284" stop-color="#EEAF91"/><stop offset=".593" stop-color="#DB9A85"/><stop offset="1" stop-color="#C37F75"/></linearGradient><linearGradient id="b" x1="7.375" y1="7.938" x2="8" y2="8.531" gradientUnits="userSpaceOnUse"><stop offset=".24" stop-color="#D4875F"/><stop offset="1" stop-color="#CF845D" stop-opacity="0"/></linearGradient><linearGradient id="c" x1="8.618" y1="9.039" x2="9.173" y2="9.594" gradientUnits="userSpaceOnUse"><stop stop-color="#D88F74" stop-opacity="0"/><stop offset="1" stop-color="#D18363"/></linearGradient><linearGradient id="d" x1="2.234" y1="1.797" x2="8.188" y2="7.75" gradientUnits="userSpaceOnUse"><stop stop-color="#D2A852"/><stop offset=".468" stop-color="#EFCA3C"/><stop offset=".597" stop-color="#D4B039"/><stop offset=".801" stop-color="#EECA3F"/><stop offset="1" stop-color="#CB9F44"/></linearGradient><linearGradient id="f" x1="7.438" y1="7.188" x2="3.563" y2="11.063" gradientUnits="userSpaceOnUse"><stop stop-color="#CDA13D" stop-opacity="0"/><stop offset="1" stop-color="#C09764"/></linearGradient><linearGradient id="h" x1="29.438" y1="17.02" x2="4.005" y2="17.02" gradientUnits="userSpaceOnUse"><stop stop-color="#FFD2B5"/><stop offset=".57" stop-color="#FFBE9C"/><stop offset=".84" stop-color="#E49E8B"/><stop offset="1" stop-color="#D1817B"/></linearGradient><linearGradient id="i" x1="16.997" y1="13.063" x2="13.5" y2="29.188" gradientUnits="userSpaceOnUse"><stop offset=".207" stop-color="#DA95A5" stop-opacity="0"/><stop offset=".743" stop-color="#DC96A6"/></linearGradient><linearGradient id="j" x1="19.5" y1="7.5" x2="7.875" y2="19.25" gradientUnits="userSpaceOnUse"><stop offset=".038" stop-color="#DFC2B6"/><stop offset=".199" stop-color="#E7CDC5"/><stop offset=".375" stop-color="#E7CDC5"/><stop offset=".687" stop-color="#D4B3B7"/><stop offset="1" stop-color="#D7B5B6"/></linearGradient><linearGradient id="k" x1="15.188" y1="16.375" x2="14.063" y2="14.188" gradientUnits="userSpaceOnUse"><stop offset=".195" stop-color="#D6B5B2"/><stop offset="1" stop-color="#DFC3B8" stop-opacity="0"/></linearGradient><linearGradient id="l" x1="13.625" y1="25.438" x2="25.5" y2="13.25" gradientUnits="userSpaceOnUse"><stop stop-color="#D2C4E3"/><stop offset=".689" stop-color="#E7E4ED"/><stop offset="1" stop-color="#E8E7EB"/></linearGradient><linearGradient id="m" x1="10.375" y1="15.313" x2="11.688" y2="16.563" gradientUnits="userSpaceOnUse"><stop offset=".078" stop-color="#CA7F67"/><stop offset=".315" stop-color="#D68D77"/><stop offset=".65" stop-color="#E09290"/><stop offset="1" stop-color="#D58577"/></linearGradient><linearGradient id="o" x1="13.711" y1="18.585" x2="15.024" y2="19.835" gradientUnits="userSpaceOnUse"><stop offset=".078" stop-color="#CF8572"/><stop offset=".315" stop-color="#D88F7C"/><stop offset=".65" stop-color="#E59996"/><stop offset="1" stop-color="#E3918E"/></linearGradient><linearGradient id="q" x1="16.976" y1="21.965" x2="18.286" y2="23.215" gradientUnits="userSpaceOnUse"><stop offset=".078" stop-color="#D28977"/><stop offset=".315" stop-color="#DC9384"/><stop offset=".65" stop-color="#E79C9B"/><stop offset="1" stop-color="#E49496"/></linearGradient><radialGradient id="e" cx="0" cy="0" r="1" gradientUnits="userSpaceOnUse" gradientTransform="matrix(1.8125 1.8125 -5.39063 5.39063 9.594 4.25)"><stop stop-color="#F9D667"/><stop offset=".42" stop-color="#ECC73F"/><stop offset="1" stop-color="#DEB636" stop-opacity="0"/></radialGradient><radialGradient id="g" cx="0" cy="0" r="1" gradientUnits="userSpaceOnUse" gradientTransform="rotate(45 -.952 7.73) scale(2.40858)"><stop stop-color="#FFDE6B"/><stop offset=".504" stop-color="#F6D146"/><stop offset="1" stop-color="#E9BF40" stop-opacity="0"/></radialGradient><radialGradient id="n" cx="0" cy="0" r="1" gradientUnits="userSpaceOnUse" gradientTransform="rotate(135 3.15 9.853) scale(1.14905 1.92587)"><stop stop-color="#F6B599"/><stop offset="1" stop-color="#DF9788" stop-opacity="0"/></radialGradient><radialGradient id="p" cx="0" cy="0" r="1" gradientUnits="userSpaceOnUse" gradientTransform="rotate(135 4.14 12.18) scale(1.14905 1.92587)"><stop stop-color="#F6B599"/><stop offset="1" stop-color="#DF9788" stop-opacity="0"/></radialGradient><radialGradient id="r" cx="0" cy="0" r="1" gradientUnits="userSpaceOnUse" gradientTransform="matrix(-.8125 .81063 -1.35867 -1.3618 18.945 21.248)"><stop stop-color="#F6B599"/><stop offset="1" stop-color="#DF9788" stop-opacity="0"/></radialGradient></defs></svg>
